svgs/solid/octagon-exclamation.svg

<svg xmlns="http://www.w3.org/2000/svg" viewBox="0 0 512 512"><!--! Font Awesome Pro 6.1.2 by @fontawesome - https://fontawesome.com License - https://fontawesome.com/license (Commercial License) Copyright 2022 Fonticons, Inc. --><path d="M140.6 21.15C154.1 7.648 172.4 .0625 191.5 .0625H320.5C339.6 .0625 357.9 7.648 371.4 21.15L490.8 140.6C504.3 154.1 511.9 172.4 511.9 191.5V320.5C511.9 339.6 504.3 357.9 490.8 371.4L371.4 490.8C357.9 504.3 339.6 511.9 320.5 511.9H191.5C172.4 511.9 154.1 504.3 140.6 490.8L21.15 371.4C7.652 357.9 .0666 339.6 .0666 320.5V191.5C.0666 172.4 7.652 154.1 21.15 140.6L140.6 21.15zM232 151.1V263.1C232 277.3 242.7 287.1 256 287.1C269.3 287.1 280 277.3 280 263.1V151.1C280 138.7 269.3 127.1 256 127.1C242.7 127.1 232 138.7 232 151.1V151.1zM256 319.1C238.3 319.1 224 334.3 224 351.1C224 369.7 238.3 383.1 256 383.1C273.7 383.1 288 369.7 288 351.1C288 334.3 273.7 319.1 256 319.1z"/></svg>

<svg xmlns="http://www.w3.org/2000/svg" viewBox="0 0 512 512"><!--! Font Awesome Pro 6.2.0 by @fontawesome - https://fontawesome.com License - https://fontawesome.com/license (Commercial License) Copyright 2022 Fonticons, Inc. --><path d="M140.6 21.2C154.1 7.7 172.4 .1 191.5 .1h129c19.1 0 37.4 7.6 50.9 21.1L490.8 140.6c13.5 13.5 21.1 31.8 21.1 50.9v129c0 19.1-7.6 37.4-21.1 50.9L371.4 490.8c-13.5 13.5-31.8 21.1-50.9 21.1h-129c-19.1 0-37.4-7.6-50.9-21.1L21.2 371.4C7.7 357.9 .1 339.6 .1 320.5v-129c0-19.1 7.6-37.4 21.1-50.9L140.6 21.2zM256 128c-13.3 0-24 10.7-24 24V264c0 13.3 10.7 24 24 24s24-10.7 24-24V152c0-13.3-10.7-24-24-24zm32 224c0-17.7-14.3-32-32-32s-32 14.3-32 32s14.3 32 32 32s32-14.3 32-32z"/></svg>
